symbols/web/file_upload/materialsymbolsrounded/file_upload_wght600gradN25_20px.svg

<svg xmlns="http://www.w3.org/2000/svg" height="20" width="20"><path d="M10 12.896q-.438 0-.771-.334-.333-.333-.333-.77V6.583L7.625 7.875q-.333.313-.771.323-.437.01-.75-.302-.312-.313-.323-.761-.01-.447.323-.781l3.125-3.125q.167-.167.365-.25.198-.083.406-.083.208 0 .406.083.198.083.365.25l3.125 3.125q.312.313.323.761.01.447-.323.781-.313.312-.761.302-.447-.01-.76-.323l-1.271-1.292v5.209q0 .437-.333.77-.333.334-.771.334Zm-5.062 4.25q-.938 0-1.563-.636-.625-.635-.625-1.552v-2q0-.437.333-.77.334-.334.75-.334.438 0 .771.334.334.333.334.77v2h10.104v-2q0-.437.333-.77.333-.334.771-.334.416 0 .75.334.333.333.333.77v2q0 .917-.635 1.552-.636.636-1.552.636Z"/></svg>

<svg xmlns="http://www.w3.org/2000/svg" height="20" width="20"><path d="M10 12.896Q9.562 12.896 9.229 12.562Q8.896 12.229 8.896 11.792V6.583L7.625 7.875Q7.292 8.188 6.854 8.198Q6.417 8.208 6.104 7.896Q5.792 7.583 5.781 7.135Q5.771 6.688 6.104 6.354L9.229 3.229Q9.396 3.062 9.594 2.979Q9.792 2.896 10 2.896Q10.208 2.896 10.406 2.979Q10.604 3.062 10.771 3.229L13.896 6.354Q14.208 6.667 14.219 7.115Q14.229 7.562 13.896 7.896Q13.583 8.208 13.135 8.198Q12.688 8.188 12.375 7.875L11.104 6.583V11.792Q11.104 12.229 10.771 12.562Q10.438 12.896 10 12.896ZM4.938 17.146Q4 17.146 3.375 16.51Q2.75 15.875 2.75 14.958V12.958Q2.75 12.521 3.083 12.188Q3.417 11.854 3.833 11.854Q4.271 11.854 4.604 12.188Q4.938 12.521 4.938 12.958V14.958Q4.938 14.958 4.938 14.958Q4.938 14.958 4.938 14.958H15.042Q15.042 14.958 15.042 14.958Q15.042 14.958 15.042 14.958V12.958Q15.042 12.521 15.375 12.188Q15.708 11.854 16.146 11.854Q16.562 11.854 16.896 12.188Q17.229 12.521 17.229 12.958V14.958Q17.229 15.875 16.594 16.51Q15.958 17.146 15.042 17.146Z"/></svg>
